X:1
T:Title
L:1/8
Q:1/4=110
M:4/4
K:Bb
V:1 treble nm="Church Organ, Staff"
V:1
 F2 B2 B2 A2 | G2 F2- F/ z/ G F2 | F2 G2 c2 B2 | A2 B6 | F2 B2 B2 A2 | G2 F2- F/ z/ G F2 | %6
w: By~G.~W.~Fink * * *||||||
 d2 c2 B2 A2 | G2 F6 | F2 A2 F2 B2 | G2 c2 F2 d2 | B2 e2 d2 c2 | B2 B4 A2 | F2 B2 B2 A2 | %13
w: |||||||
 G2 F2- F/ z/ G F2 | F2 G2 c2 B2 | A2 B6 |] %16
w: |||

